src/assets/img/arrow.svg

<svg xmlns:xlink="http://www.w3.org/1999/xlink" height="33.2" width="40.2" xmlns="http://www.w3.org/2000/svg"><use height="33.2" width="40.2" xlink:href="#a"/><use height="30.2" transform="translate(1.5 1.5)" width="37.2" xlink:href="#b"/><use height="27.2" transform="translate(3 3)" width="34.2" xlink:href="#c"/><use height="23.2" transform="translate(5 5)" width="30.2" xlink:href="#d"/><use height="50" transform="matrix(.25 0 0 .25 22.7 5.013)" width="50" xlink:href="#e"/><use height="50" transform="matrix(.25 0 0 .25 18.4 1.513)" width="50" xlink:href="#f"/><use height="50" transform="matrix(.25 0 0 .25 26.8 9.763)" width="50" xlink:href="#f"/><defs><path d="m37.05 10.1.2.2-.2-.15.65.6.5.5.2.2q1.8 2.2 1.8 5.15t-1.8 5.25l-.25.3-10.25 9.8-.85.55q-1.6.7-3.45.7-3 0-5.25-1.9l-.3-.3-.75-.85-.1-.15q-1.7-2.15-1.7-4.9v-.35H8.15q-2.5 0-4.45-1.25l-.4-.3-.9-.8-.2-.2Q0 19.85 0 16.6q-.05-3.2 2.4-5.7h-.05q2.25-2.45 5.8-2.4h7.35v-.35q0-3.25 2.25-5.55Q20.2 0 23.6 0q3.2 0 5.5 2.15l.1.1 7.85 7.85" fill="#ff0559" fill-opacity=".2" fill-rule="evenodd" id="k"/><path d="M35.25 10.45h.05q1.9 1.9 1.9 4.65 0 2.7-1.8 4.65l-.45.4-8.2 8.15h.05q-1.95 1.9-4.7 1.9t-4.65-1.9l-.05-.05q-1.9-2-1.9-4.65 0-1 .25-1.85h-9.1q-2.8 0-4.7-1.9l-.05-.05Q0 17.8 0 15.1t1.85-4.6l.1-.05q1.85-2 4.7-1.95h9.1l-.25-1.85q0-2.7 1.85-4.6l.1-.05q1.85-2 4.65-2 2.8 0 4.75 2.05l.25.3 8.15 8.1" fill="#fff" fill-rule="evenodd" id="l"/><path d="M19.85 22.95v-.05h-.05l.05.05m-15.5-8.5H4.3l.05.05v-.05M20.6 0q2.1 0 3.6 1.55l.05.05L32.7 10h.05q1.45 1.45 1.45 3.6 0 2.1-1.45 3.65l-.05.05-8.5 8.45h.05q-1.5 1.45-3.65 1.45T17 25.75l-.05-.05q-1.45-1.55-1.45-3.6 0-1.95 1.25-3.35H5.15q-2.2 0-3.65-1.45l-.05-.05Q0 15.7 0 13.6q0-2.15 1.5-3.6l-.05.05q1.5-1.6 3.7-1.55h11.6Q15.5 7 15.5 5.15q0-2.15 1.5-3.6l-.05.05Q18.45 0 20.6 0m-.75 6v-.05h-.05l.05.05" fill="url(#g)" fill-rule="evenodd" id="m"/><path d="M16.4 5.35q-.9-.95-.9-2.2 0-1.3.9-2.2.9-.95 2.2-.95 1.3 0 2.2.95l8.5 8.45q.9.9.9 2.2 0 1.3-.9 2.25l-8.5 8.45q-.9.9-2.2.9-1.3 0-2.2-.9-.9-.95-.9-2.2 0-1.3.9-2.2l3.15-3.15H3.15q-1.35 0-2.25-.9Q0 12.9 0 11.6t.9-2.2q.9-.95 2.25-.9h16.4L16.4 5.35" fill="url(#h)" fill-rule="evenodd" id="n"/><path d="M0-24.95q10.3 0 17.6 7.3Q24.95-10.3 25 .05q-.05 10.3-7.4 17.6Q10.3 25 0 25.05q-10.35-.05-17.7-7.4-7.3-7.3-7.3-17.6 0-10.35 7.3-17.7 7.35-7.3 17.7-7.3" fill="url(#i)" fill-rule="evenodd" transform="translate(25 24.95)" id="o"/><path d="M0-24.95q10.3 0 17.6 7.3Q24.95-10.3 25 .05q-.05 10.3-7.4 17.6Q10.3 25 0 25.05q-10.35-.05-17.7-7.4-7.3-7.3-7.3-17.6 0-10.35 7.3-17.7 7.35-7.3 17.7-7.3" fill="url(#j)" fill-rule="evenodd" transform="translate(25 24.95)" id="p"/><use height="33.2" width="40.2" xlink:href="#k" id="a"/><use height="30.2" width="37.2" xlink:href="#l" id="b"/><use height="27.2" width="34.2" xlink:href="#m" id="c"/><use height="23.2" width="30.2" xlink:href="#n" id="d"/><use height="50" width="50" xlink:href="#o" id="e"/><use height="50" width="50" xlink:href="#p" id="f"/><radialGradient cx="0" cy="0" gradientTransform="scale(.0307)" gradientUnits="userSpaceOnUse" id="i" r="819.2" spreadMethod="pad"><stop offset=".337" stop-color="#fff"/><stop offset="1" stop-color="#fff" stop-opacity="0"/></radialGradient><radialGradient cx="0" cy="0" gradientTransform="scale(.0307)" gradientUnits="userSpaceOnUse" id="j" r="819.2" spreadMethod="pad"><stop offset="0" stop-color="#fff"/><stop offset="1" stop-color="#fff" stop-opacity="0"/></radialGradient><linearGradient gradientTransform="matrix(.0182 -.0101 .0081 .0145 19.7 15.2)" gradientUnits="userSpaceOnUse" id="g" spreadMethod="pad" x1="-819.2" x2="819.2"><stop offset="0" stop-color="#8f0149"/><stop offset="1" stop-color="#f39"/></linearGradient><linearGradient gradientTransform="matrix(.0115 -.0073 .0076 .0119 15.25 12.8)" gradientUnits="userSpaceOnUse" id="h" spreadMethod="pad" x1="-819.2" x2="819.2"><stop offset="0" stop-color="#ff8ac5"/><stop offset="1" stop-color="#fff"/></linearGradient></defs></svg>

<?xml version="1.0" encoding="UTF-8" standalone="no"?>
<svg xmlns:xlink="http://www.w3.org/1999/xlink" height="33.2px" width="40.2px" xmlns="http://www.w3.org/2000/svg">
  <g transform="matrix(1.0, 0.0, 0.0, 1.0, 0.0, 0.0)">
    <use height="33.2" transform="matrix(1.0, 0.0, 0.0, 1.0, 0.0, 0.0)" width="40.2" xlink:href="#sprite0"/>
    <use height="30.2" transform="matrix(1.0, 0.0, 0.0, 1.0, 1.5, 1.5)" width="37.2" xlink:href="#sprite1"/>
    <use height="27.2" transform="matrix(1.0, 0.0, 0.0, 1.0, 3.0, 3.0)" width="34.2" xlink:href="#sprite2"/>
    <use height="23.2" transform="matrix(1.0, 0.0, 0.0, 1.0, 5.0, 5.0)" width="30.2" xlink:href="#sprite3"/>
    <use height="50.0" transform="matrix(0.25, 0.0, 0.0, 0.25, 22.7004, 5.0129)" width="50.0" xlink:href="#sprite4"/>
    <use height="50.0" transform="matrix(0.25, 0.0, 0.0, 0.25, 18.4004, 1.5129)" width="50.0" xlink:href="#sprite5"/>
    <use height="50.0" transform="matrix(0.25, 0.0, 0.0, 0.25, 26.8004, 9.7629)" width="50.0" xlink:href="#sprite5"/>
  </g>
  <defs>
    <g id="sprite0" transform="matrix(1.0, 0.0, 0.0, 1.0, 0.0, 0.0)">
      <use height="33.2" transform="matrix(1.0, 0.0, 0.0, 1.0, 0.0, 0.0)" width="40.2" xlink:href="#shape0"/>
    </g>
    <g id="shape0" transform="matrix(1.0, 0.0, 0.0, 1.0, 0.0, 0.0)">
      <path d="M37.05 10.1 L37.25 10.3 37.05 10.15 37.7 10.75 38.2 11.25 38.4 11.45 Q40.2 13.65 40.2 16.6 40.2 19.55 38.4 21.85 L38.15 22.15 27.9 31.95 27.05 32.5 Q25.45 33.2 23.6 33.2 20.6 33.2 18.35 31.3 L18.05 31.0 17.3 30.15 17.2 30.0 Q15.5 27.85 15.5 25.1 L15.5 24.75 9.8 24.75 8.15 24.75 Q5.65 24.75 3.7 23.5 L3.3 23.2 2.4 22.4 2.2 22.2 Q0.0 19.85 0.0 16.6 -0.05 13.4 2.4 10.9 L2.35 10.9 Q4.6 8.45 8.15 8.5 L8.25 8.5 15.5 8.5 15.5 8.15 Q15.5 4.9 17.75 2.6 20.2 0.0 23.6 0.0 26.8 0.0 29.1 2.15 L29.2 2.25 37.05 10.1" fill="#ff0559" fill-opacity="0.2" fill-rule="evenodd" stroke="none"/>
    </g>
    <g id="sprite1" transform="matrix(1.0, 0.0, 0.0, 1.0, 0.0, 0.0)">
      <use height="30.2" transform="matrix(1.0, 0.0, 0.0, 1.0, 0.0, 0.0)" width="37.2" xlink:href="#shape1"/>
    </g>
    <g id="shape1" transform="matrix(1.0, 0.0, 0.0, 1.0, 0.0, 0.0)">
      <path d="M35.25 10.45 L35.3 10.45 Q37.2 12.35 37.2 15.1 37.2 17.8 35.4 19.75 L34.95 20.15 26.75 28.3 26.8 28.3 Q24.85 30.2 22.1 30.2 19.35 30.2 17.45 28.3 L17.4 28.25 Q15.5 26.25 15.5 23.6 15.5 22.6 15.75 21.75 L6.65 21.75 Q3.85 21.75 1.95 19.85 L1.9 19.8 Q0.0 17.8 0.0 15.1 0.0 12.4 1.85 10.5 L1.95 10.45 Q3.8 8.45 6.65 8.5 L6.75 8.5 15.75 8.5 15.5 6.65 Q15.5 3.95 17.35 2.05 L17.45 2.0 Q19.3 0.0 22.1 0.0 24.9 0.0 26.85 2.05 L27.1 2.35 35.25 10.45" fill="#ffffff" fill-rule="evenodd" stroke="none"/>
    </g>
    <g id="sprite2" transform="matrix(1.0, 0.0, 0.0, 1.0, 0.0, 0.0)">
      <use height="27.2" transform="matrix(1.0, 0.0, 0.0, 1.0, 0.0, 0.0)" width="34.2" xlink:href="#shape2"/>
    </g>
    <g id="shape2" transform="matrix(1.0, 0.0, 0.0, 1.0, 0.0, 0.0)">
      <path d="M19.85 22.95 L19.85 22.9 19.8 22.9 19.85 22.95 M4.35 14.45 L4.3 14.45 4.35 14.5 4.35 14.45 M20.6 0.0 Q22.7 0.0 24.2 1.55 L24.25 1.6 32.7 10.0 32.75 10.0 Q34.2 11.45 34.2 13.6 34.2 15.7 32.75 17.25 L32.7 17.3 24.2 25.75 24.25 25.75 Q22.75 27.2 20.6 27.2 18.45 27.2 17.0 25.75 L16.95 25.7 Q15.5 24.15 15.5 22.1 15.5 20.15 16.75 18.75 L5.15 18.75 Q2.95 18.75 1.5 17.3 L1.45 17.25 Q0.0 15.7 0.0 13.6 0.0 11.45 1.5 10.0 L1.45 10.05 Q2.95 8.45 5.15 8.5 L5.25 8.5 16.75 8.5 Q15.5 7.0 15.5 5.15 15.5 3.0 17.0 1.55 L16.95 1.6 Q18.45 0.0 20.6 0.0 M19.85 6.0 L19.85 5.95 19.8 5.95 19.85 6.0" fill="url(#gradient0)" fill-rule="evenodd" stroke="none"/>
    </g>
    <linearGradient gradientTransform="matrix(0.0182, -0.0101, 0.0081, 0.0145, 19.7, 15.2)" gradientUnits="userSpaceOnUse" id="gradient0" spreadMethod="pad" x1="-819.2" x2="819.2">
      <stop offset="0.0" stop-color="#8f0149"/>
      <stop offset="1.0" stop-color="#ff3399"/>
    </linearGradient>
    <g id="sprite3" transform="matrix(1.0, 0.0, 0.0, 1.0, 0.0, 0.0)">
      <use height="23.2" transform="matrix(1.0, 0.0, 0.0, 1.0, 0.0, 0.0)" width="30.2" xlink:href="#shape3"/>
    </g>
    <g id="shape3" transform="matrix(1.0, 0.0, 0.0, 1.0, 0.0, 0.0)">
      <path d="M16.4 5.35 Q15.5 4.4 15.5 3.15 15.5 1.85 16.4 0.95 17.3 0.0 18.6 0.0 19.9 0.0 20.8 0.95 L29.3 9.4 Q30.2 10.3 30.2 11.6 30.2 12.9 29.3 13.85 L20.8 22.3 Q19.9 23.2 18.6 23.2 17.3 23.2 16.4 22.3 15.5 21.35 15.5 20.1 15.5 18.8 16.4 17.9 L19.55 14.75 3.15 14.75 Q1.8 14.75 0.9 13.85 0.0 12.9 0.0 11.6 0.0 10.3 0.9 9.4 1.8 8.45 3.15 8.5 L19.55 8.5 16.4 5.35" fill="url(#gradient1)" fill-rule="evenodd" stroke="none"/>
    </g>
    <linearGradient gradientTransform="matrix(0.0115, -0.0073, 0.0076, 0.0119, 15.25, 12.8)" gradientUnits="userSpaceOnUse" id="gradient1" spreadMethod="pad" x1="-819.2" x2="819.2">
      <stop offset="0.0" stop-color="#ff8ac5"/>
      <stop offset="1.0" stop-color="#ffffff"/>
    </linearGradient>
    <g id="sprite4" transform="matrix(1.0, 0.0, 0.0, 1.0, 25.0, 24.95)">
      <use height="50.0" transform="matrix(1.0, 0.0, 0.0, 1.0, -25.0, -24.95)" width="50.0" xlink:href="#shape4"/>
    </g>
    <g id="shape4" transform="matrix(1.0, 0.0, 0.0, 1.0, 25.0, 24.95)">
      <path d="M0.0 -24.95 Q10.3 -24.95 17.6 -17.65 24.95 -10.3 25.0 0.05 24.95 10.35 17.6 17.65 10.3 25.0 0.0 25.05 -10.35 25.0 -17.7 17.65 -25.0 10.35 -25.0 0.05 -25.0 -10.3 -17.7 -17.65 -10.35 -24.95 0.0 -24.95" fill="url(#gradient2)" fill-rule="evenodd" stroke="none"/>
    </g>
    <radialGradient cx="0" cy="0" gradientTransform="matrix(0.0307, 0.0, 0.0, 0.0307, 0.0, 0.0)" gradientUnits="userSpaceOnUse" id="gradient2" r="819.2" spreadMethod="pad">
      <stop offset="0.33725490196078434" stop-color="#ffffff"/>
      <stop offset="1.0" stop-color="#ffffff" stop-opacity="0.0"/>
    </radialGradient>
    <g id="sprite5" transform="matrix(1.0, 0.0, 0.0, 1.0, 25.0, 24.95)">
      <use height="50.0" transform="matrix(1.0, 0.0, 0.0, 1.0, -25.0, -24.95)" width="50.0" xlink:href="#shape5"/>
    </g>
    <g id="shape5" transform="matrix(1.0, 0.0, 0.0, 1.0, 25.0, 24.95)">
      <path d="M0.0 -24.95 Q10.3 -24.95 17.6 -17.65 24.95 -10.3 25.0 0.05 24.95 10.35 17.6 17.65 10.3 25.0 0.0 25.05 -10.35 25.0 -17.7 17.65 -25.0 10.35 -25.0 0.05 -25.0 -10.3 -17.7 -17.65 -10.35 -24.95 0.0 -24.95" fill="url(#gradient3)" fill-rule="evenodd" stroke="none"/>
    </g>
    <radialGradient cx="0" cy="0" gradientTransform="matrix(0.0307, 0.0, 0.0, 0.0307, 0.0, 0.0)" gradientUnits="userSpaceOnUse" id="gradient3" r="819.2" spreadMethod="pad">
      <stop offset="0.0" stop-color="#ffffff"/>
      <stop offset="1.0" stop-color="#ffffff" stop-opacity="0.0"/>
    </radialGradient>
  </defs>
</svg>
